packages/katcn/src/icons/svg/closedFile-solid.svg

<svg width="24" height="25" viewBox="0 0 24 25" fill="none" xmlns="http://www.w3.org/2000/svg">
<path d="M18.8718 7.48809L14.7692 3.38809C14.1538 2.68809 13.2308 2.28809 12.3077 2.28809H6.66667C5.23077 2.28809 4 3.48809 4 4.98809V19.6881C4 21.0881 5.23077 22.2881 6.66667 22.2881H17.3333C18.7692 22.2881 20 21.0881 20 19.5881V11.1881V9.98809C20 8.98809 19.5897 8.08809 18.8718 7.48809Z" fill="black"/>
<path d="M11.8 11.4881C9.7 11.4881 8 13.1881 8 15.2881C8 17.3881 9.7 19.0881 11.8 19.0881C13.9 19.0881 15.6 17.3881 15.6 15.2881C15.6 13.1881 13.9 11.4881 11.8 11.4881ZM11.8 13.0881C12 13.0881 12.2 13.0881 12.4 13.1881L9.9 16.3881C9.7 16.0881 9.6 15.6881 9.6 15.2881C9.6 14.0881 10.6 13.0881 11.8 13.0881ZM11.8 17.4881C11.6 17.4881 11.4 17.4881 11.2 17.3881L13.7 14.1881C13.9 14.4881 14 14.8881 14 15.2881C14 16.4881 13 17.4881 11.8 17.4881Z" fill="white"/>
</svg>

<svg xmlns="http://www.w3.org/2000/svg" fill="none" viewBox="0 0 24 25"><path fill="#000" d="m18.872 7.488-4.103-4.1a3.3 3.3 0 0 0-2.461-1.1H6.667C5.23 2.288 4 3.488 4 4.988v14.7c0 1.4 1.23 2.6 2.667 2.6h10.666c1.436 0 2.667-1.2 2.667-2.7v-9.6c0-1-.41-1.9-1.128-2.5"/><path fill="#fff" d="M11.8 11.488c-2.1 0-3.8 1.7-3.8 3.8s1.7 3.8 3.8 3.8 3.8-1.7 3.8-3.8-1.7-3.8-3.8-3.8m0 1.6c.2 0 .4 0 .6.1l-2.5 3.2c-.2-.3-.3-.7-.3-1.1 0-1.2 1-2.2 2.2-2.2m0 4.4c-.2 0-.4 0-.6-.1l2.5-3.2c.2.3.3.7.3 1.1 0 1.2-1 2.2-2.2 2.2"/></svg>
